;FLAVOR:Marlin
;TIME:4102
;Filament used: 4.63701m
;Layer height: 0.2
;MINX:69.75
;MINY:68.75
;MINZ:0.3
;MAXX:152.25
;MAXY:153.25
;MAXZ:9.9
;TARGET_MACHINE.NAME:Anycubic Kobra Go
;Generated with Cura_SteamEngine 5.5.0
M140 S60
M105
M190 S60
M104 S190
M105
M109 S190
M82 ;absolute extrusion mode
M140 S[first_layer_bed_temperature]; Heat bed
M104 S[first_layer_temperature
            ]; Heat extruder
G21 ;metric values
G90 ;absolute positioning
M82 ;set extruder to absolute mode
G28 ; Home all axes
G92 E0 ; Reset Extruder
M420 S1 ; Enable Bed Levelling Mesh
M190 S[first_layer_bed_temperature
            ]; Wait for bed to get up to temperature
M109 S[first_layer_temperature
            ]; Wait for extruder to get up to temperature
G1 Z2.0 F3000 ; Move Z Axis up little to prevent scratching of Heat Bed
G1 X2 Y20 Z0.3 F5000.0 ; Move to start position
G1 X2 Y200.0 Z0.3 F1500.0 E15 ; Draw the first line
G1 X2.4 Y200.0 Z0.3 F5000.0 ; Move to side a little
G1 X2.4 Y20 Z0.3 F1500.0 E30 ; Draw the second line
G92 E0 ; Reset Extruder
G1 Z2.0 F3000 ; Move Z Axis up little to prevent scratching of Heat Bed
G1 F2400 E-1
G1 X5 Y20 Z0.3 F5000.0 ; Move over to prevent blob squish
G92 E0
G92 E0
G1 F1500 E-6.5
;LAYER_COUNT:49
;LAYER:0
M107
G0 F3600 X91.311 Y71.694 Z0.3
;TYPE:SKIRT
G1 F1500 E0
G1 X91.948 Y70.881 E0.05153
G1 X93.185 Y69.884 E0.13079
G1 X94.963 Y68.998 E0.2299
G1 X96.362 Y68.794 E0.30043
G1 X107.537 Y68.75 E0.85796
G1 X109.394 Y69.132 E0.95255
G1 X111.056 Y70.061 E1.04754
G1 X111.873 Y70.701 E1.09932
G1 X112.866 Y71.938 E1.17846
G1 X113.766 Y73.745 E1.27917
G1 X114 Y75.75 E1.37988
G1 X113.995 Y81.064 E1.645
G1 X114.7 Y81.352 E1.68299
G1 X115.749 Y81.831 E1.74052
G1 X116.773 Y82.332 E1.7974
G1 X117.747 Y82.861 E1.85269
G1 X118.733 Y83.432 E1.90954
G1 X119.921 Y84.182 E1.97963
G1 X121.337 Y85.184 E2.06618
G1 X122.56 Y86.145 E2.14377
G1 X123.908 Y87.323 E2.23309
G1 X124.877 Y88.274 E2.30082
G1 X125.665 Y89.087 E2.35731
G1 X126.428 Y89.945 E2.41459
G1 X127.143 Y90.801 E2.47024
G1 X127.809 Y91.659 E2.52443
G1 X128.489 Y92.605 E2.58255
G1 X129.122 Y93.557 E2.63959
G1 X129.857 Y94.75 E2.70949
G1 X130.706 Y96.294 E2.7974
G1 X131.289 Y97.503 E2.86437
G1 X131.734 Y98.518 E2.91966
G1 X132.153 Y99.563 E2.97583
G1 X132.536 Y100.621 E3.03196
G1 X132.979 Y102.002 E3.10432
G1 X133.344 Y103.373 E3.1751
G1 X133.681 Y104.983 E3.25717
G1 X133.869 Y106.078 E3.31259
G1 X134.027 Y107.215 E3.36986
G1 X134.137 Y108.333 E3.42591
G1 X134.232 Y109.812 E3.49985
G1 X134.25 Y111.159 E3.56706
G1 X134.204 Y112.75 E3.64647
G1 X145.789 Y112.75 E4.22445
G1 X147.644 Y113.132 E4.31893
G1 X149.306 Y114.061 E4.41393
G1 X150.119 Y114.698 E4.46545
G1 X151.116 Y115.935 E4.54472
G1 X152.002 Y117.713 E4.64383
G1 X152.206 Y119.112 E4.71436
G1 X152.25 Y136.789 E5.59627
G1 X151.868 Y138.644 E5.69076
G1 X150.939 Y140.306 E5.78575
G1 X150.302 Y141.119 E5.83728
G1 X149.065 Y142.116 E5.91654
G1 X147.287 Y143.002 E6.01565
G1 X145.888 Y143.206 E6.08619
G1 X114 Y143.25 E7.67709
G1 X114 Y146.789 E7.85365
G1 X113.618 Y148.644 E7.94814
G1 X112.689 Y150.306 E8.04313
G1 X112.052 Y151.119 E8.09466
G1 X110.815 Y152.116 E8.17392
G1 X109.037 Y153.002 E8.27303
G1 X107.638 Y153.206 E8.34356
G1 X96.463 Y153.25 E8.90109
G1 X94.606 Y152.868 E8.99568
G1 X92.944 Y151.939 E9.09067
G1 X92.127 Y151.299 E9.14245
G1 X91.134 Y150.062 E9.22158
G1 X90.234 Y148.255 E9.3223
G1 X90 Y146.25 E9.42301
G1 X90.005 Y140.935 E9.68817
G1 X89.286 Y140.642 E9.72691
G1 X88.257 Y140.173 E9.78333
G1 X87.239 Y139.67 E9.83998
G1 X86.253 Y139.14 E9.89583
G1 X85.031 Y138.432 E9.96628
G1 X83.885 Y137.686 E10.03451
G1 X82.752 Y136.884 E10.10376
G1 X81.327 Y135.754 E10.19449
G1 X80.057 Y134.644 E10.27864
G1 X79.113 Y133.717 E10.34465
G1 X78.319 Y132.893 E10.40174
G1 X77.58 Y132.063 E10.45718
G1 X76.856 Y131.197 E10.5135
G1 X76.192 Y130.343 E10.56747
G1 X75.518 Y129.406 E10.62505
G1 X74.878 Y128.443 E10.68274
G1 X74.143 Y127.25 E10.75265
G1 X73.294 Y125.706 E10.84056
G1 X72.711 Y124.497 E10.90752
G1 X72.266 Y123.482 E10.96281
G1 X71.847 Y122.437 E11.01898
G1 X71.459 Y121.366 E11.07581
G1 X71.026 Y120.017 E11.1465
G1 X70.651 Y118.606 E11.21933
G1 X70.319 Y117.016 E11.30037
G1 X70.131 Y115.921 E11.3558
G1 X69.973 Y114.784 E11.41307
G1 X69.863 Y113.666 E11.46912
G1 X69.768 Y112.188 E11.54301
G1 X69.75 Y110.841 E11.61021
G1 X69.782 Y109.748 E11.66477
G1 X69.86 Y108.249 E11.73965
G1 X70.049 Y106.564 E11.82425
G1 X70.283 Y105.134 E11.89654
G1 X70.607 Y103.601 E11.97471
G1 X70.917 Y102.384 E12.03736
G1 X71.371 Y100.915 E12.11407
G1 X71.815 Y99.63 E12.1819
G1 X72.362 Y98.288 E12.2542
G1 X72.83 Y97.253 E12.31087
G1 X73.324 Y96.24 E12.3671
G1 X73.958 Y95.055 E12.43415
G1 X74.707 Y93.814 E12.50647
G1 X75.41 Y92.739 E12.57055
G1 X76.321 Y91.488 E12.64776
G1 X77.018 Y90.613 E12.70357
G1 X77.757 Y89.733 E12.7609
G1 X78.505 Y88.914 E12.81623
G1 X79.294 Y88.101 E12.87276
G1 X80.101 Y87.326 E12.92858
G1 X80.956 Y86.568 E12.98558
G1 X81.816 Y85.851 E13.04144
G1 X82.965 Y84.964 E13.11386
G1 X84.077 Y84.19 E13.18145
G1 X85.014 Y83.586 E13.23707
G1 X85.999 Y83 E13.29425
G1 X87.207 Y82.336 E13.36302
G1 X88.511 Y81.708 E13.43523
G1 X89.524 Y81.264 E13.49041
G1 X90.005 Y81.072 E13.51625
G1 X90 Y75.211 E13.80866
G1 X90.382 Y73.356 E13.90315
G1 X91.311 Y71.694 E13.99814
G0 F3600 X91.626 Y71.941
G1 F1500 X92.237 Y71.162 E14.04753
G1 X93.402 Y70.223 E14.12218
G1 X95.083 Y69.385 E14.21589
G1 X96.42 Y69.19 E14.2833
G1 X107.496 Y69.15 E14.83589
G1 X109.253 Y69.512 E14.92539
G1 X110.809 Y70.376 E15.01418
G1 X111.589 Y70.987 E15.06361
G1 X112.529 Y72.157 E15.13849
G1 X113.377 Y73.861 E15.23345
G1 X113.6 Y75.75 E15.32834
G1 X113.595 Y81.334 E15.60693
G1 X114.534 Y81.716 E15.65751
G1 X115.573 Y82.19 E15.71448
G1 X116.582 Y82.684 E15.77053
G1 X117.547 Y83.207 E15.82529
G1 X118.52 Y83.77 E15.88137
G1 X119.69 Y84.508 E15.95039
G1 X121.09 Y85.499 E16.03596
G1 X122.313 Y86.46 E16.11356
G1 X123.628 Y87.609 E16.20068
G1 X124.59 Y88.553 E16.26792
G1 X125.366 Y89.353 E16.32353
G1 X126.121 Y90.201 E16.38017
G1 X126.827 Y91.046 E16.43511
G1 X127.484 Y91.892 E16.48855
G1 X128.156 Y92.827 E16.54599
G1 X128.782 Y93.767 E16.60234
G1 X129.507 Y94.943 E16.67126
G1 X130.346 Y96.468 E16.7581
G1 X130.923 Y97.664 E16.82435
G1 X131.363 Y98.667 E16.87899
G1 X131.777 Y99.699 E16.93447
G1 X132.155 Y100.743 E16.98986
G1 X132.592 Y102.105 E17.06122
G1 X132.957 Y103.476 E17.13201
G1 X133.287 Y105.051 E17.21229
G1 X133.473 Y106.133 E17.26706
G1 X133.629 Y107.254 E17.32353
G1 X133.738 Y108.359 E17.37892
G1 X133.832 Y109.817 E17.45181
G1 X133.85 Y111.148 E17.51822
G1 X133.819 Y112.234 E17.57243
G1 X133.769 Y113.15 E17.6182
G1 X145.747 Y113.15 E18.21578
G1 X147.503 Y113.512 E18.30523
G1 X149.059 Y114.376 E18.39402
G1 X149.838 Y114.987 E18.44342
G1 X150.777 Y116.152 E18.51807
G1 X151.615 Y117.833 E18.61178
G1 X151.81 Y119.17 E18.67918
G1 X151.85 Y136.747 E19.55611
G1 X151.488 Y138.503 E19.64556
G1 X150.624 Y140.059 E19.73435
G1 X150.013 Y140.838 E19.78374
G1 X148.848 Y141.777 E19.85839
G1 X147.167 Y142.615 E19.9521
G1 X145.83 Y142.81 E20.01951
G1 X113.6 Y142.85 E21.62747
G1 X113.6 Y146.747 E21.8219
G1 X113.238 Y148.503 E21.91135
G1 X112.374 Y150.059 E22.00014
G1 X111.763 Y150.838 E22.04953
G1 X110.598 Y151.777 E22.12418
G1 X108.917 Y152.615 E22.21789
G1 X107.58 Y152.81 E22.2853
G1 X96.504 Y152.85 E22.83789
G1 X94.747 Y152.488 E22.92739
G1 X93.191 Y151.624 E23.01618
G1 X92.411 Y151.013 E23.06561
G1 X91.471 Y149.843 E23.14049
G1 X90.623 Y148.139 E23.23545
G1 X90.4 Y146.25 E23.33035
G1 X90.405 Y140.667 E23.60888
G1 X89.452 Y140.278 E23.66024
G1 X88.434 Y139.814 E23.71605
G1 X87.428 Y139.318 E23.77201
G1 X86.453 Y138.794 E23.82723
G1 X85.249 Y138.097 E23.89664
G1 X84.116 Y137.36 E23.96407
G1 X83 Y136.57 E24.03229
G1 X81.59 Y135.453 E24.12203
G1 X80.337 Y134.358 E24.20505
G1 X79.401 Y133.44 E24.27046
G1 X78.618 Y132.627 E24.32677
G1 X77.887 Y131.806 E24.38162
G1 X77.172 Y130.951 E24.43722
G1 X76.517 Y130.109 E24.49044
G1 X75.851 Y129.184 E24.54731
G1 X75.218 Y128.233 E24.6043
G1 X74.493 Y127.057 E24.67323
G1 X73.654 Y125.532 E24.76006
G1 X73.077 Y124.336 E24.82631
G1 X72.637 Y123.333 E24.88096
G1 X72.223 Y122.301 E24.93643
G1 X71.84 Y121.244 E24.99252
G1 X71.413 Y119.914 E25.06221
G1 X71.043 Y118.524 E25.13397
G1 X70.713 Y116.948 E25.2143
G1 X70.527 Y115.866 E25.26908
G1 X70.371 Y114.745 E25.32554
G1 X70.262 Y113.64 E25.38094
G1 X70.168 Y112.183 E25.45378
G1 X70.15 Y110.852 E25.52019
G1 X70.181 Y109.769 E25.57424
G1 X70.258 Y108.293 E25.64798
G1 X70.444 Y106.629 E25.73152
G1 X70.678 Y105.199 E25.80381
G1 X70.995 Y103.7 E25.88025
G1 X71.305 Y102.483 E25.9429
G1 X71.749 Y101.046 E26.01794
G1 X72.193 Y99.761 E26.08577
G1 X72.726 Y98.453 E26.15623
G1 X73.19 Y97.428 E26.21237
G1 X73.677 Y96.429 E26.26781
G1 X74.311 Y95.244 E26.33486
G1 X75.042 Y94.033 E26.40543
G1 X75.745 Y92.958 E26.46952
G1 X76.634 Y91.737 E26.54487
G1 X77.324 Y90.87 E26.60015
G1 X78.052 Y90.003 E26.65663
G1 X78.792 Y89.193 E26.71137
G1 X79.571 Y88.39 E26.76718
G1 X80.378 Y87.615 E26.823
G1 X81.212 Y86.875 E26.87863
G1 X82.061 Y86.167 E26.93378
G1 X83.193 Y85.292 E27.00516
G1 X84.294 Y84.526 E27.07208
G1 X85.219 Y83.93 E27.12698
G1 X86.192 Y83.351 E27.18346
G1 X87.4 Y82.687 E27.25223
G1 X88.672 Y82.074 E27.32268
G1 X89.672 Y81.635 E27.37717
G1 X90.405 Y81.342 E27.41655
G1 X90.4 Y75.253 E27.72033
G1 X90.762 Y73.497 E27.80978
G1 X91.626 Y71.941 E27.89857
G0 F3600 X91.941 Y72.188
G1 F1500 X92.523 Y71.445 E27.94566
G1 X93.622 Y70.56 E28.01606
G1 X95.203 Y69.772 E28.10419
G1 X96.478 Y69.586 E28.16847
G1 X107.455 Y69.55 E28.71612
G1 X109.114 Y69.892 E28.80063
G1 X110.562 Y70.691 E28.88314
G1 X111.308 Y71.275 E28.9304
G1 X112.19 Y72.374 E29.00071
G1 X112.988 Y73.977 E29.09004
G1 X113.2 Y75.75 E29.17913
G1 X113.195 Y81.602 E29.47108
G1 X114.368 Y82.08 E29.53428
G1 X115.397 Y82.549 E29.5907
G1 X116.392 Y83.036 E29.64596
G1 X117.347 Y83.553 E29.70014
G1 X118.307 Y84.108 E29.75546
G1 X119.459 Y84.834 E29.8234
G1 X120.843 Y85.814 E29.90801
G1 X122.066 Y86.775 E29.9856
G1 X123.348 Y87.895 E30.07053
G1 X124.303 Y88.831 E30.13725
G1 X125.067 Y89.619 E30.192
G1 X125.814 Y90.458 E30.24805
G1 X126.511 Y91.292 E30.30228
G1 X127.159 Y92.125 E30.35493
G1 X127.823 Y93.049 E30.41169
G1 X128.442 Y93.977 E30.46735
G1 X129.157 Y95.136 E30.53529
G1 X129.986 Y96.642 E30.62105
G1 X130.557 Y97.825 E30.68659
G1 X130.992 Y98.816 E30.74058
G1 X131.401 Y99.835 E30.79536
G1 X131.774 Y100.865 E30.85002
G1 X132.205 Y102.208 E30.92038
G1 X132.57 Y103.579 E30.99117
G1 X132.893 Y105.119 E31.06967
G1 X133.077 Y106.188 E31.12379
G1 X133.231 Y107.293 E31.17945
G1 X133.339 Y108.385 E31.23419
G1 X133.432 Y109.822 E31.30604
G1 X133.45 Y111.137 E31.37165
G1 X133.42 Y112.212 E31.4253
G1 X133.347 Y113.55 E31.49215
G1 X145.705 Y113.55 E32.1087
G1 X147.364 Y113.892 E32.1932
G1 X148.812 Y114.691 E32.27571
G1 X149.555 Y115.273 E32.3228
G1 X150.44 Y116.372 E32.3932
G1 X151.228 Y117.953 E32.48133
G1 X151.414 Y119.228 E32.54561
G1 X151.45 Y136.705 E33.41754
G1 X151.108 Y138.364 E33.50205
G1 X150.309 Y139.812 E33.58456
G1 X149.727 Y140.555 E33.63165
G1 X148.628 Y141.44 E33.70205
G1 X147.047 Y142.228 E33.79018
G1 X145.772 Y142.414 E33.85446
G1 X113.2 Y142.45 E35.47948
G1 X113.2 Y146.705 E35.69177
G1 X112.858 Y148.364 E35.77628
G1 X112.059 Y149.812 E35.85878
G1 X111.477 Y150.555 E35.90587
G1 X110.378 Y151.44 E35.97627
G1 X108.797 Y152.228 E36.0644
G1 X107.522 Y152.414 E36.12868
G1 X96.545 Y152.45 E36.67633
G1 X94.886 Y152.108 E36.76084
G1 X93.438 Y151.309 E36.84335
G1 X92.692 Y150.725 E36.89061
G1 X91.81 Y149.626 E36.96092
G1 X91.012 Y148.023 E37.05025
G1 X90.8 Y146.25 E37.13934
G1 X90.805 Y140.397 E37.43134
G1 X89.618 Y139.914 E37.49528
G1 X88.611 Y139.455 E37.55049
G1 X87.617 Y138.966 E37.60576
G1 X86.653 Y138.448 E37.66036
G1 X85.467 Y137.762 E37.72871
G1 X84.347 Y137.034 E37.79536
G1 X83.248 Y136.256 E37.86253
G1 X81.853 Y135.152 E37.95129
G1 X80.617 Y134.072 E38.03318
G1 X79.689 Y133.163 E38.09798
G1 X78.917 Y132.361 E38.15352
G1 X78.194 Y131.55 E38.20773
G1 X77.488 Y130.705 E38.26266
G1 X76.842 Y129.875 E38.31513
G1 X76.176 Y128.95 E38.372
G1 X75.558 Y128.023 E38.42758
G1 X74.843 Y126.864 E38.49552
G1 X74.014 Y125.358 E38.58129
G1 X73.443 Y124.175 E38.64683
G1 X73.008 Y123.184 E38.70082
G1 X72.599 Y122.165 E38.7556
G1 X72.221 Y121.122 E38.81095
G1 X71.8 Y119.811 E38.87964
G1 X71.43 Y118.421 E38.95141
G1 X71.107 Y116.88 E39.02996
G1 X70.923 Y115.811 E39.08407
G1 X70.769 Y114.706 E39.13974
G1 X70.661 Y113.614 E39.19448
G1 X70.568 Y112.178 E39.26627
G1 X70.55 Y110.863 E39.33189
G1 X70.58 Y109.79 E39.38544
G1 X70.656 Y108.337 E39.45803
G1 X70.839 Y106.694 E39.5405
G1 X71.073 Y105.264 E39.6128
G1 X71.383 Y103.799 E39.6875
G1 X71.693 Y102.582 E39.75016
G1 X72.127 Y101.177 E39.82352
G1 X72.571 Y99.892 E39.89135
G1 X73.09 Y98.618 E39.95998
G1 X73.55 Y97.603 E40.01558
G1 X74.03 Y96.618 E40.07025
G1 X74.664 Y95.433 E40.13729
G1 X75.377 Y94.252 E40.20612
G1 X76.08 Y93.177 E40.2702
G1 X76.947 Y91.986 E40.3437
G1 X77.63 Y91.127 E40.39845
G1 X78.347 Y90.273 E40.45408
G1 X79.079 Y89.471 E40.50825
G1 X79.848 Y88.678 E40.56336
G1 X80.643 Y87.914 E40.61837
G1 X81.468 Y87.182 E40.6734
G1 X82.306 Y86.483 E40.72784
G1 X83.422 Y85.62 E40.79822
G1 X84.511 Y84.862 E40.86442
G1 X85.423 Y84.274 E40.91856
G1 X86.385 Y83.702 E40.97439
G1 X87.593 Y83.038 E41.04317
G1 X88.833 Y82.44 E41.11185
G1 X89.821 Y82.006 E41.16569
G1 X90.805 Y81.612 E41.21857
G1 X90.8 Y75.295 E41.53372
G1 X91.142 Y73.636 E41.61823
G1 X91.941 Y72.188 E41.70074
G0 F3600 X92.256 Y72.435
G1 F1500 X92.812 Y71.726 E41.74569
G1 X93.838 Y70.899 E41.81144
G1 X95.323 Y70.159 E41.89421
G1 X96.536 Y69.982 E41.95537
G1 X107.413 Y69.95 E42.49803
G1 X108.974 Y70.272 E42.57755
G1 X110.315 Y71.006 E42.65382
G1 X111.026 Y71.563 E42.69888
G1 X111.851 Y72.591 E42.76464
G1 X112.599 Y74.093 E42.84835
G1 X112.8 Y75.75 E42.93163
G1 X112.795 Y81.871 E43.237
G1 X114.202 Y82.444 E43.3128
G1 X115.221 Y82.908 E43.36866
G1 X116.202 Y83.388 E43.42314
G1 X117.147 Y83.899 E43.47674
G1 X118.094 Y84.446 E43.5313
G1 X119.228 Y85.161 E43.59819
G1 X120.596 Y86.129 E43.68179
G1 X121.819 Y87.09 E43.75939
G1 X123.068 Y88.181 E43.84213
G1 X124.016 Y89.11 E43.90835
G1 X124.768 Y89.885 E43.96222
G1 X125.507 Y90.715 E44.01767
G1 X126.195 Y91.538 E44.07119
G1 X126.834 Y92.359 E44.12309
G1 X127.49 Y93.271 E44.17914
G1 X128.102 Y94.187 E44.2341
G1 X128.807 Y95.329 E44.30105
G1 X129.626 Y96.816 E44.38575
G1 X130.191 Y97.986 E44.45057
G1 X130.621 Y98.965 E44.50392
G1 X131.025 Y99.971 E44.558
G1 X131.393 Y100.987 E44.61191
G1 X131.818 Y102.311 E44.68129
G1 X132.183 Y103.682 E44.75207
G1 X132.499 Y105.187 E44.82879
G1 X132.681 Y106.243 E44.88225
G1 X132.833 Y107.332 E44.93711
G1 X132.94 Y108.411 E44.99121
G1 X133.032 Y109.828 E45.06205
G1 X133.05 Y111.126 E45.12681
G1 X133.021 Y112.19 E45.17992
G1 X132.925 Y113.95 E45.26785
G1 X145.663 Y113.95 E45.90335
G1 X147.224 Y114.272 E45.98287
G1 X148.565 Y115.006 E46.05914
G1 X149.274 Y115.562 E46.10409
G1 X150.101 Y116.588 E46.16984
G1 X150.841 Y118.073 E46.25261
G1 X151.018 Y119.286 E46.31377
G1 X151.05 Y136.663 E47.18072
G1 X150.728 Y138.224 E47.26023
G1 X149.994 Y139.565 E47.3365
G1 X149.438 Y140.274 E47.38145
G1 X148.412 Y141.101 E47.4472
G1 X146.927 Y141.841 E47.52998
G1 X145.714 Y142.018 E47.59113
G1 X112.8 Y142.05 E49.23322
G1 X112.8 Y146.663 E49.46336
G1 X112.478 Y148.224 E49.54288
G1 X111.744 Y149.565 E49.61915
G1 X111.188 Y150.274 E49.6641
G1 X110.162 Y151.101 E49.72985
G1 X108.677 Y151.841 E49.81262
G1 X107.464 Y152.018 E49.87378
G1 X96.587 Y152.05 E50.41644
G1 X95.026 Y151.728 E50.49596
G1 X93.685 Y150.994 E50.57223
G1 X92.974 Y150.437 E50.61729
G1 X92.149 Y149.409 E50.68305
G1 X91.401 Y147.907 E50.76676
G1 X91.2 Y146.25 E50.85004
G1 X91.205 Y140.129 E51.15541
G1 X89.784 Y139.55 E51.23197
G1 X88.787 Y139.096 E51.28662
G1 X87.806 Y138.614 E51.34115
G1 X86.853 Y138.102 E51.39513
G1 X85.685 Y137.427 E51.46243
G1 X84.578 Y136.708 E51.52828
G1 X83.496 Y135.942 E51.59442
G1 X82.116 Y134.851 E51.68219
G1 X80.897 Y133.786 E51.76295
G1 X79.977 Y132.885 E51.82719
G1 X79.216 Y132.095 E51.88191
