;FLAVOR:Marlin
;TIME:5889
;Filament used: 6.89515m
;Layer height: 0.2
;MINX:64.75
;MINY:66.75
;MINZ:0.3
;MAXX:157.25
;MAXY:155.25
;MAXZ:9.9
;TARGET_MACHINE.NAME:Anycubic Kobra Go
;Generated with Cura_SteamEngine 5.5.0
M140 S60
M105
M190 S60
M104 S190
M105
M109 S190
M82 ;absolute extrusion mode
M140 S[first_layer_bed_temperature]; Heat bed
M104 S[first_layer_temperature
            ]; Heat extruder
G21 ;metric values
G90 ;absolute positioning
M82 ;set extruder to absolute mode
G28 ; Home all axes
G92 E0 ; Reset Extruder
M420 S1 ; Enable Bed Levelling Mesh
M190 S[first_layer_bed_temperature
            ]; Wait for bed to get up to temperature
M109 S[first_layer_temperature
            ]; Wait for extruder to get up to temperature
G1 Z2.0 F3000 ; Move Z Axis up little to prevent scratching of Heat Bed
G1 X2 Y20 Z0.3 F5000.0 ; Move to start position
G1 X2 Y200.0 Z0.3 F1500.0 E15 ; Draw the first line
G1 X2.4 Y200.0 Z0.3 F5000.0 ; Move to side a little
G1 X2.4 Y20 Z0.3 F1500.0 E30 ; Draw the second line
G92 E0 ; Reset Extruder
G1 Z2.0 F3000 ; Move Z Axis up little to prevent scratching of Heat Bed
G1 F2400 E-1
G1 X5 Y20 Z0.3 F5000.0 ; Move over to prevent blob squish
G92 E0
G92 E0
G1 F1500 E-6.5
;LAYER_COUNT:49
;LAYER:0
M107
G0 F3600 X81.948 Y68.881 Z0.3
;TYPE:SKIRT
G1 F1500 E0
G1 X83.185 Y67.884 E0.07926
G1 X84.963 Y66.998 E0.17837
G1 X86.362 Y66.794 E0.24891
G1 X107.539 Y66.75 E1.30543
G1 X109.394 Y67.132 E1.39992
G1 X111.056 Y68.061 E1.49491
G1 X111.869 Y68.698 E1.54644
G1 X112.866 Y69.935 E1.62571
G1 X113.752 Y71.713 E1.72481
G1 X113.956 Y73.112 E1.79535
G1 X113.996 Y83.582 E2.3177
G1 X115.025 Y84.251 E2.37894
G1 X116.081 Y85 E2.44353
G1 X117.173 Y85.833 E2.51205
G1 X118.266 Y86.757 E2.58345
G1 X119.089 Y87.512 E2.63917
G1 X119.877 Y88.274 E2.69386
G1 X120.665 Y89.087 E2.75035
G1 X121.428 Y89.945 E2.80763
G1 X122.143 Y90.8 E2.86324
G1 X122.8 Y91.645 E2.91664
G1 X123.485 Y92.597 E2.97515
G1 X124.118 Y93.553 E3.03235
G1 X124.699 Y94.495 E3.08757
G1 X125.256 Y95.461 E3.1432
G1 X125.798 Y96.484 E3.20096
G1 X126.289 Y97.504 E3.25744
G1 X126.734 Y98.52 E3.31277
G1 X127.155 Y99.57 E3.36921
G1 X127.539 Y100.643 E3.42607
G1 X127.869 Y101.691 E3.48088
G1 X128.174 Y102.755 E3.5361
G1 X128.446 Y103.868 E3.59327
G1 X128.681 Y104.983 E3.65012
G1 X128.869 Y106.078 E3.70555
G1 X129.027 Y107.215 E3.76282
G1 X129.137 Y108.334 E3.81891
G1 X129.232 Y109.812 E3.8928
G1 X129.25 Y111.159 E3.96001
G1 X129.204 Y112.75 E4.03942
G1 X146.751 Y112.769 E4.91484
G1 X150.761 Y112.75 E5.1149
G1 X152.469 Y113.058 E5.20149
G1 X154.298 Y114.015 E5.30448
G1 X155.269 Y114.893 E5.36979
G1 X156.107 Y115.909 E5.43549
G1 X157.009 Y117.71 E5.53598
G1 X157.229 Y119.383 E5.62017
G1 X157.25 Y136.789 E6.48856
G1 X156.868 Y138.644 E6.58305
G1 X155.939 Y140.306 E6.67804
G1 X155.302 Y141.119 E6.72957
G1 X154.065 Y142.116 E6.80883
G1 X152.287 Y143.002 E6.90794
G1 X150.888 Y143.206 E6.97847
G1 X114 Y143.25 E8.81882
G1 X114 Y148.789 E9.09517
G1 X113.618 Y150.644 E9.18965
G1 X112.689 Y152.306 E9.28465
G1 X112.052 Y153.119 E9.33617
G1 X110.815 Y154.116 E9.41544
G1 X109.037 Y155.002 E9.51455
G1 X107.638 Y155.206 E9.58508
G1 X86.461 Y155.25 E10.64161
G1 X84.606 Y154.868 E10.7361
G1 X82.944 Y153.939 E10.83109
G1 X82.131 Y153.302 E10.88262
G1 X81.134 Y152.065 E10.96188
G1 X80.248 Y150.287 E11.06099
G1 X80.044 Y148.888 E11.13152
G1 X80.004 Y138.421 E11.65373
G1 X79.001 Y137.77 E11.71338
G1 X77.963 Y137.038 E11.77675
G1 X76.875 Y136.209 E11.84499
G1 X75.72 Y135.234 E11.9204
G1 X74.931 Y134.514 E11.97369
G1 X74.113 Y133.717 E12.03067
G1 X73.319 Y132.893 E12.08776
G1 X72.58 Y132.062 E12.14324
G1 X71.856 Y131.194 E12.19963
G1 X71.183 Y130.327 E12.25439
G1 X70.506 Y129.382 E12.31239
G1 X69.89 Y128.462 E12.36762
G1 X69.292 Y127.498 E12.42422
G1 X68.738 Y126.526 E12.48004
G1 X68.202 Y125.516 E12.53708
G1 X67.711 Y124.497 E12.59351
G1 X67.266 Y123.483 E12.64876
G1 X66.847 Y122.437 E12.70498
G1 X66.463 Y121.374 E12.76136
G1 X66.121 Y120.297 E12.81774
G1 X65.82 Y119.215 E12.87377
G1 X65.554 Y118.132 E12.92941
G1 X65.319 Y117.017 E12.98626
G1 X65.131 Y115.922 E13.04169
G1 X64.973 Y114.785 E13.09896
G1 X64.863 Y113.666 E13.15505
G1 X64.768 Y112.188 E13.22894
G1 X64.75 Y110.841 E13.29615
G1 X64.782 Y109.748 E13.3507
G1 X64.86 Y108.249 E13.42559
G1 X65.049 Y106.564 E13.51018
G1 X65.299 Y105.058 E13.58634
G1 X65.615 Y103.59 E13.66126
G1 X65.883 Y102.545 E13.71508
G1 X66.194 Y101.46 E13.77139
G1 X66.531 Y100.42 E13.82594
G1 X66.921 Y99.361 E13.88224
G1 X67.363 Y98.288 E13.94014
G1 X67.832 Y97.252 E13.99687
G1 X68.335 Y96.228 E14.05379
G1 X68.86 Y95.259 E14.10877
G1 X69.423 Y94.282 E14.16503
G1 X70.024 Y93.329 E14.22124
G1 X70.648 Y92.406 E14.27682
G1 X71.321 Y91.488 E14.33361
G1 X72.015 Y90.613 E14.38933
G1 X72.756 Y89.729 E14.44688
G1 X73.47 Y88.946 E14.49974
G1 X74.284 Y88.113 E14.55785
G1 X75.092 Y87.334 E14.61385
G1 X75.949 Y86.572 E14.67106
G1 X76.811 Y85.853 E14.72706
G1 X77.702 Y85.162 E14.78331
G1 X78.627 Y84.497 E14.84015
G1 X80 Y83.58 E14.92252
G1 X80 Y73.211 E15.43983
G1 X80.382 Y71.356 E15.53432
G1 X81.311 Y69.694 E15.62931
G1 X81.948 Y68.881 E15.68084
G0 F3600 X82.237 Y69.162
G1 F1500 X83.402 Y68.223 E15.75549
G1 X85.083 Y67.385 E15.8492
G1 X86.42 Y67.19 E15.91661
G1 X107.497 Y67.15 E16.96815
G1 X109.253 Y67.512 E17.0576
G1 X110.809 Y68.376 E17.14639
G1 X111.588 Y68.987 E17.19578
G1 X112.527 Y70.152 E17.27044
G1 X113.365 Y71.833 E17.36414
G1 X113.56 Y73.17 E17.43155
G1 X113.597 Y83.799 E17.96184
G1 X114.794 Y84.577 E18.03306
G1 X115.839 Y85.318 E18.09698
G1 X116.915 Y86.138 E18.16447
G1 X117.996 Y87.052 E18.23509
G1 X118.811 Y87.799 E18.29025
G1 X119.59 Y88.553 E18.34434
G1 X120.366 Y89.353 E18.39994
G1 X121.121 Y90.201 E18.45659
G1 X121.827 Y91.046 E18.51152
G1 X122.475 Y91.879 E18.56418
G1 X123.151 Y92.818 E18.6219
G1 X123.784 Y93.774 E18.6791
G1 X124.352 Y94.695 E18.73309
G1 X124.909 Y95.661 E18.78872
G1 X125.438 Y96.658 E18.84503
G1 X125.923 Y97.664 E18.90074
G1 X126.363 Y98.669 E18.95548
G1 X126.778 Y99.705 E19.01116
G1 X127.157 Y100.763 E19.06723
G1 X127.484 Y101.801 E19.12152
G1 X127.789 Y102.865 E19.17674
G1 X128.055 Y103.95 E19.23248
G1 X128.287 Y105.051 E19.28861
G1 X128.473 Y106.133 E19.34338
G1 X128.629 Y107.254 E19.39985
G1 X128.738 Y108.36 E19.4553
G1 X128.832 Y109.817 E19.52814
G1 X128.85 Y111.148 E19.59455
G1 X128.819 Y112.234 E19.64875
G1 X128.769 Y113.15 E19.69452
G1 X146.753 Y113.169 E20.59174
G1 X150.724 Y113.15 E20.78986
G1 X152.339 Y113.441 E20.87173
G1 X154.069 Y114.347 E20.96916
G1 X154.96 Y115.148 E21.02893
G1 X155.77 Y116.13 E21.09244
G1 X156.621 Y117.829 E21.18724
G1 X156.832 Y119.435 E21.26806
G1 X156.85 Y136.747 E22.13176
G1 X156.488 Y138.503 E22.22121
G1 X155.624 Y140.059 E22.31
G1 X155.013 Y140.838 E22.35939
G1 X153.848 Y141.777 E22.43404
G1 X152.167 Y142.615 E22.52775
G1 X150.83 Y142.81 E22.59516
G1 X113.6 Y142.85 E24.45257
G1 X113.6 Y148.747 E24.74678
G1 X113.238 Y150.503 E24.83623
G1 X112.374 Y152.059 E24.92502
G1 X111.763 Y152.838 E24.97441
G1 X110.598 Y153.777 E25.04906
G1 X108.917 Y154.615 E25.14277
G1 X107.58 Y154.81 E25.21018
G1 X86.503 Y154.85 E26.26172
G1 X84.747 Y154.488 E26.35117
G1 X83.191 Y153.624 E26.43996
G1 X82.412 Y153.013 E26.48936
G1 X81.473 Y151.848 E26.56401
G1 X80.635 Y150.167 E26.65771
G1 X80.44 Y148.83 E26.72512
G1 X80.403 Y138.204 E27.25526
G1 X79.232 Y137.443 E27.32493
G1 X78.194 Y136.711 E27.3883
G1 X77.133 Y135.903 E27.45484
G1 X75.99 Y134.939 E27.52944
G1 X75.21 Y134.227 E27.58212
G1 X74.401 Y133.44 E27.63843
G1 X73.618 Y132.627 E27.69475
G1 X72.887 Y131.806 E27.74959
G1 X72.172 Y130.949 E27.80527
G1 X71.508 Y130.094 E27.85928
G1 X70.838 Y129.159 E27.91667
G1 X70.23 Y128.251 E27.97119
G1 X69.639 Y127.3 E28.02705
G1 X69.091 Y126.339 E28.08224
G1 X68.562 Y125.342 E28.13855
G1 X68.077 Y124.336 E28.19427
G1 X67.637 Y123.334 E28.24886
G1 X67.223 Y122.301 E28.30438
G1 X66.844 Y121.253 E28.35998
G1 X66.506 Y120.19 E28.41563
G1 X66.208 Y119.12 E28.47105
G1 X65.945 Y118.05 E28.52602
G1 X65.713 Y116.949 E28.58215
G1 X65.527 Y115.867 E28.63693
G1 X65.371 Y114.746 E28.69339
G1 X65.262 Y113.64 E28.74884
G1 X65.168 Y112.183 E28.82168
G1 X65.15 Y110.852 E28.88809
G1 X65.181 Y109.769 E28.94214
G1 X65.258 Y108.293 E29.01588
G1 X65.444 Y106.629 E29.09941
G1 X65.69 Y105.142 E29.17461
G1 X66.002 Y103.69 E29.2487
G1 X66.268 Y102.655 E29.30202
G1 X66.575 Y101.583 E29.35765
G1 X66.912 Y100.543 E29.41219
G1 X67.291 Y99.513 E29.46695
G1 X67.727 Y98.453 E29.52413
G1 X68.191 Y97.428 E29.58026
G1 X68.687 Y96.418 E29.6364
G1 X69.206 Y95.459 E29.6908
G1 X69.762 Y94.495 E29.74632
G1 X70.355 Y93.553 E29.80186
G1 X70.971 Y92.642 E29.85672
G1 X71.634 Y91.737 E29.91269
G1 X72.322 Y90.87 E29.96791
G1 X73.052 Y89.999 E30.02461
G1 X73.766 Y89.216 E30.07748
G1 X74.562 Y88.401 E30.13431
G1 X75.358 Y87.633 E30.1895
G1 X76.205 Y86.879 E30.24607
G1 X77.056 Y86.169 E30.30136
G1 X77.935 Y85.487 E30.35687
G1 X78.849 Y84.83 E30.41303
G1 X79.973 Y84.079 E30.48047
G1 X80.4 Y83.824 E30.50528
G1 X80.4 Y73.253 E31.03267
G1 X80.762 Y71.497 E31.12212
G1 X81.626 Y69.941 E31.21091
G1 X82.237 Y69.162 E31.26031
G0 F3600 X82.523 Y69.445
G1 F1500 X83.622 Y68.56 E31.3307
G1 X85.203 Y67.772 E31.41883
G1 X86.478 Y67.586 E31.48312
G1 X107.455 Y67.55 E32.52967
G1 X109.114 Y67.892 E32.61417
G1 X110.562 Y68.691 E32.69668
G1 X111.305 Y69.273 E32.74377
G1 X112.19 Y70.372 E32.81417
G1 X112.978 Y71.953 E32.9023
G1 X113.164 Y73.228 E32.96658
G1 X113.198 Y84.046 E33.5063
G1 X113.764 Y84.384 E33.53918
G1 X114.563 Y84.903 E33.58672
G1 X115.597 Y85.636 E33.64995
G1 X116.657 Y86.443 E33.71642
G1 X117.726 Y87.347 E33.78626
G1 X118.533 Y88.086 E33.84086
G1 X119.303 Y88.831 E33.89431
G1 X120.067 Y89.619 E33.94907
G1 X120.814 Y90.458 E34.00511
G1 X121.511 Y91.292 E34.05934
G1 X122.15 Y92.113 E34.11124
G1 X122.826 Y93.052 E34.16896
G1 X123.444 Y93.984 E34.22476
G1 X124.006 Y94.895 E34.27816
G1 X124.556 Y95.848 E34.33305
G1 X125.078 Y96.832 E34.38863
G1 X125.557 Y97.825 E34.44363
G1 X125.992 Y98.817 E34.49767
G1 X126.401 Y99.84 E34.55264
G1 X126.775 Y100.883 E34.60791
G1 X127.099 Y101.911 E34.66169
G1 X127.404 Y102.975 E34.71691
G1 X127.664 Y104.033 E34.77126
G1 X127.893 Y105.119 E34.82664
G1 X128.077 Y106.188 E34.88075
G1 X128.231 Y107.293 E34.93642
G1 X128.339 Y108.386 E34.99121
G1 X128.432 Y109.822 E35.063
G1 X128.45 Y111.137 E35.12861
G1 X128.42 Y112.212 E35.18227
G1 X128.347 Y113.55 E35.24912
G1 X146.755 Y113.569 E36.1675
G1 X150.687 Y113.55 E36.36367
G1 X152.211 Y113.825 E36.44093
G1 X153.837 Y114.676 E36.53249
G1 X154.651 Y115.402 E36.58691
G1 X155.432 Y116.349 E36.64815
G1 X156.233 Y117.948 E36.73737
G1 X156.435 Y119.487 E36.81481
G1 X156.45 Y136.705 E37.67382
G1 X156.108 Y138.364 E37.75833
G1 X155.309 Y139.812 E37.84084
G1 X154.727 Y140.555 E37.88793
G1 X153.628 Y141.44 E37.95832
G1 X152.047 Y142.228 E38.04645
G1 X150.772 Y142.414 E38.11074
G1 X113.2 Y142.45 E39.98521
G1 X113.2 Y148.705 E40.29727
G1 X112.858 Y150.364 E40.38178
G1 X112.059 Y151.812 E40.46429
G1 X111.477 Y152.555 E40.51138
G1 X110.378 Y153.44 E40.58178
G1 X108.797 Y154.228 E40.66991
G1 X107.522 Y154.414 E40.73419
G1 X86.545 Y154.45 E41.78074
G1 X84.886 Y154.108 E41.86525
G1 X83.438 Y153.309 E41.94776
G1 X82.695 Y152.727 E41.99484
G1 X81.81 Y151.628 E42.06524
G1 X81.022 Y150.047 E42.15337
G1 X80.836 Y148.772 E42.21765
G1 X80.802 Y137.956 E42.75727
G1 X80.248 Y137.626 E42.78944
G1 X79.463 Y137.116 E42.83614
G1 X78.425 Y136.384 E42.89951
G1 X77.391 Y135.597 E42.96434
G1 X76.26 Y134.644 E43.03813
G1 X75.489 Y133.94 E43.09021
G1 X74.689 Y133.163 E43.14585
G1 X73.917 Y132.361 E43.20139
G1 X73.194 Y131.55 E43.2556
G1 X72.488 Y130.704 E43.31057
G1 X71.833 Y129.861 E43.36383
G1 X71.17 Y128.936 E43.42061
G1 X70.57 Y128.04 E43.47441
G1 X69.986 Y127.102 E43.52953
G1 X69.444 Y126.152 E43.5841
G1 X68.922 Y125.168 E43.63967
G1 X68.443 Y124.175 E43.69467
G1 X68.008 Y123.185 E43.74862
G1 X67.599 Y122.165 E43.80345
G1 X67.225 Y121.132 E43.85826
G1 X66.891 Y120.083 E43.91318
G1 X66.596 Y119.025 E43.96798
G1 X66.336 Y117.967 E44.02234
G1 X66.107 Y116.881 E44.07771
G1 X65.923 Y115.812 E44.13182
G1 X65.769 Y114.707 E44.18749
G1 X65.661 Y113.614 E44.24228
G1 X65.568 Y112.178 E44.31407
G1 X65.55 Y110.863 E44.37969
G1 X65.58 Y109.79 E44.43324
G1 X65.656 Y108.337 E44.50583
G1 X65.839 Y106.694 E44.58831
G1 X66.081 Y105.226 E44.66253
G1 X66.389 Y103.79 E44.7358
G1 X66.653 Y102.765 E44.78861
G1 X66.956 Y101.706 E44.84356
G1 X67.293 Y100.666 E44.89811
G1 X67.661 Y99.665 E44.95131
G1 X68.091 Y98.618 E45.00778
G1 X68.55 Y97.604 E45.06331
G1 X69.039 Y96.608 E45.11867
G1 X69.552 Y95.659 E45.17249
G1 X70.101 Y94.708 E45.22727
G1 X70.687 Y93.777 E45.28216
G1 X71.294 Y92.878 E45.33627
G1 X71.947 Y91.986 E45.39143
G1 X72.629 Y91.127 E45.44615
G1 X73.348 Y90.269 E45.502
G1 X74.062 Y89.486 E45.55486
G1 X74.84 Y88.689 E45.61043
G1 X75.624 Y87.932 E45.6648
G1 X76.461 Y87.186 E45.72074
G1 X77.301 Y86.485 E45.77532
G1 X78.168 Y85.812 E45.83008
G1 X79.071 Y85.163 E45.88556
G1 X80.178 Y84.423 E45.95199
G1 X80.8 Y84.052 E45.98812
G1 X80.8 Y73.295 E46.52479
G1 X81.142 Y71.636 E46.6093
G1 X81.941 Y70.188 E46.69181
G1 X82.523 Y69.445 E46.73889
G0 F3600 X82.812 Y69.726
G1 F1500 X83.838 Y68.899 E46.80464
G1 X85.323 Y68.159 E46.88742
G1 X86.536 Y67.982 E46.94857
G1 X107.413 Y67.95 E47.99013
G1 X108.974 Y68.272 E48.06965
G1 X110.315 Y69.006 E48.14592
G1 X111.024 Y69.562 E48.19087
G1 X111.851 Y70.588 E48.25662
G1 X112.591 Y72.073 E48.33939
G1 X112.768 Y73.286 E48.40055
G1 X112.799 Y84.273 E48.9487
G1 X113.546 Y84.719 E48.9921
G1 X114.332 Y85.23 E49.03887
G1 X115.355 Y85.954 E49.1014
G1 X116.399 Y86.748 E49.16684
G1 X117.456 Y87.642 E49.2359
G1 X118.255 Y88.373 E49.28993
G1 X119.016 Y89.11 E49.34279
G1 X119.768 Y89.885 E49.39666
G1 X120.507 Y90.715 E49.4521
G1 X121.195 Y91.538 E49.50562
G1 X121.825 Y92.347 E49.55678
G1 X122.501 Y93.286 E49.6145
G1 X123.104 Y94.194 E49.66888
G1 X123.66 Y95.095 E49.7217
G1 X124.203 Y96.035 E49.77586
G1 X124.718 Y97.006 E49.8307
G1 X125.191 Y97.986 E49.88499
G1 X125.621 Y98.966 E49.93838
G1 X126.025 Y99.975 E49.9926
G1 X126.394 Y101.003 E50.04709
G1 X126.715 Y102.021 E50.10035
G1 X127.016 Y103.07 E50.15479
G1 X127.273 Y104.116 E50.20853
G1 X127.499 Y105.187 E50.26314
G1 X127.681 Y106.243 E50.3166
G1 X127.833 Y107.332 E50.37146
G1 X127.94 Y108.412 E50.4256
G1 X128.032 Y109.828 E50.4964
G1 X128.05 Y111.126 E50.56116
G1 X128.021 Y112.19 E50.61426
G1 X127.925 Y113.95 E50.7022
G1 X146.757 Y113.969 E51.64173
G1 X150.65 Y113.95 E51.83596
G1 X152.081 Y114.208 E51.9085
G1 X153.609 Y115.008 E51.99455
G1 X154.342 Y115.657 E52.04339
G1 X155.095 Y116.57 E52.10244
G1 X155.845 Y118.067 E52.18597
G1 X156.038 Y119.539 E52.26004
G1 X156.05 Y136.663 E53.11436
G1 X155.728 Y138.224 E53.19388
G1 X154.994 Y139.565 E53.27015
G1 X154.438 Y140.274 E53.3151
G1 X153.412 Y141.101 E53.38084
G1 X151.927 Y141.841 E53.46362
G1 X150.714 Y142.018 E53.52478
G1 X112.8 Y142.05 E55.41631
G1 X112.8 Y148.663 E55.74624
G1 X112.478 Y150.224 E55.82576
G1 X111.744 Y151.565 E55.90202
G1 X111.188 Y152.274 E55.94698
G1 X110.162 Y153.101 E56.01272
G1 X108.677 Y153.841 E56.0955
G1 X107.464 Y154.018 E56.15666
G1 X86.587 Y154.05 E57.19821
G1 X85.026 Y153.728 E57.27773
G1 X83.685 Y152.994 E57.354
G1 X82.976 Y152.438 E57.39895
G1 X82.149 Y151.412 E57.4647
G1 X81.409 Y149.927 E57.54747
G1 X81.232 Y148.714 E57.60863
G1 X81.201 Y137.728 E58.15673
G1 X80.453 Y137.282 E58.20018
G1 X79.694 Y136.789 E58.24533
G1 X78.656 Y136.057 E58.3087
G1 X77.649 Y135.291 E58.37182
G1 X76.53 Y134.348 E58.44483
G1 X75.768 Y133.653 E58.49628
G1 X74.977 Y132.885 E58.55129
G1 X74.216 Y132.095 E58.60601
G1 X73.501 Y131.293 E58.65961
G1 X72.804 Y130.459 E58.71384
G1 X72.158 Y129.628 E58.76635
G1 X71.502 Y128.714 E58.82248
G1 X70.909 Y127.828 E58.87567
G1 X70.333 Y126.904 E58.92999
G1 X69.797 Y125.965 E58.98394
G1 X69.282 Y124.994 E59.03877
G1 X68.809 Y124.014 E59.09306
G1 X68.379 Y123.036 E59.14636
G1 X67.975 Y122.029 E59.20049
G1 X67.606 Y121.011 E59.25451
G1 X67.276 Y119.975 E59.30876
G1 X66.984 Y118.93 E59.36289
G1 X66.727 Y117.884 E59.41663
G1 X66.501 Y116.813 E59.47124
G1 X66.319 Y115.757 E59.5247
